!!!COM: Palestrina, Giovanni Perluigi da
!!!OPR: Missa In festis Apostolorum (I)
!!!OMD: Credo
!!!OTL: Et iterum
**kern	**kern	**kern	**kern	**kern
*Ibass	*Itenor	*Itenor	*Icalto	*Icant
!Bassus	!Tenor 2	!Tenor 1	!Altus	!Cantus
*clefF4	*clefGv2	*clefGv2	*clefG2	*clefG2
*k[]	*k[]	*k[]	*k[]	*k[]
*D:dor	*D:dor	*D:dor	*D:dor	*D:dor
*M4/2	*M4/2	*M4/2	*M4/2	*M4/2
=97	=97	=97	=97	=97
1r	1d	0r	0r	0r
1A	1c	.	.	.
=98	=98	=98	=98	=98
2G	2B	1d	0r	0r
2F	2A	.	.	.
2E	2G	2c	.	.
2D	[2F	2B	.	.
=99	=99	=99	=99	=99
1C	2F]	2A	0r	0r
.	2E	2G	.	.
2D	2D	2F	.	.
2E	2C	2G	.	.
=100	=100	=100	=100	=100
1C	1E	2A	0r	0r
.	.	2G	.	.
2.D	[1F	4B-	.	.
.	.	4A	.	.
.	.	[2A	.	.
4C	.	.	.	.
=101	=101	=101	=101	=101
2BB-	2F]	2A]	1r	1dd
2BB-	4E	2G	.	.
.	4D	.	.	.
1AA	2E	1A	2r	1cc
.	2F	.	2a	.
=102	=102	=102	=102	=102
0r	2G	0r	2g	2b
.	2d	.	2f	1a
.	2c	.	2e	.
.	2B	.	2d	2g
=103	=103	=103	=103	=103
0r	2A	0r	2c	2f
.	2G	.	1d	2g
.	2F	.	.	2a
.	2G	.	2e	4g
.	.	.	.	4f
=104	=104	=104	=104	=104
0r	2A	0r	2c	2e
.	2G	.	1e	2g
.	2A	.	.	2.f
.	2B-	.	[2d	.
.	.	.	.	8e
.	.	.	.	8d
=105	=105	=105	=105	=105
0r	2.A	1r	4d]	2e
.	.	.	4c#	.
.	.	.	4c#	2e
.	4G	.	8d	.
.	.	.	8e	.
.	4F	2r	2f	[1a
.	4E	.	.	.
.	2D	[2d	2f	.
=106	=106	=106	=106	=106
2r	1A	2d]	1e	1a]
1A	.	2c	.	.
.	1r	1B	2r	1r
2G	.	.	[2d	.
=107	=107	=107	=107	=107
2F	0r	2A	2d]	0r
2E	.	2G	2c	.
1D	.	2A	2f	.
.	.	2B	2d	.
=108	=108	=108	=108	=108
2C	0r	2c	1e	0r
2E	.	4B	.	.
.	.	4A	.	.
4G	.	2B	2d	.
8F	.	.	.	.
8G	.	.	.	.
[2A	.	2A	2c	.
=109	=109	=109	=109	=109
2A]	2r	1E	2B	1r
2G#	1e	.	2B	.
2A	.	1r	1A	2r
2F	2d	.	.	[2a
=110	=110	=110	=110	=110
1E	2c	1e	1r	2a]
.	2B	.	.	2g
1F	2A	2d	1a	2f
.	2A	[2c	.	2e
=111	=111	=111	=111	=111
1G	2r	2c]	1g	1d
.	2B	2B	.	.
1A	1c	2A	2f	2c
.	.	2c	[2e	2e
=112	=112	=112	=112	=112
2G	2B	1d	2e]	4g
.	.	.	.	8f
.	.	.	.	8g
2F	2A	.	2d	1a
2.E	2r	2c	1e	.
.	2E	2B	.	2g
4D	.	.	.	.
=113	=113	=113	=113	=113
2C	2E	0A	2r	1a
2D	2F	.	1d	.
1AA	2.E	.	.	2r
.	.	.	2c	[2a
.	8D	.	.	.
.	8E	.	.	.
=114	=114	=114	=114	=114
0r	2F	0r	2d	2a]
.	2E	.	2e	2g
.	1D	.	2f	2a
.	.	.	4e	2b
.	.	.	4d	.
=115	=115	=115	=115	=115
0r	0r	1A	4c	1cc
.	.	.	4d	.
.	.	.	4e	.
.	.	.	4f	.
.	.	2G	2g	2b
.	.	2A	[2f	2a
=116	=116	=116	=116	=116
1r	0r	2B	2f]	1g
.	.	2c	2e	.
2r	.	2.F	[1f	[1a
[2D	.	.	.	.
.	.	4G	.	.
=117	=117	=117	=117	=117
2D]	2r	2A	2f]	1a]
2C	1A	2c	2e	.
2D	.	1B	2r	1r
2E	2G	.	[2e	.
=118	=118	=118	=118	=118
1F	2.A	1A	2e]	2r
.	.	.	2d	1a
.	4B	.	.	.
1E	2c	1r	2e	.
.	[2B	.	2e	2g
=119	=119	=119	=119	=119
2D	4B]	2r	2f	1a
.	4A	.	.	.
2C	2A	1A	2e	.
1BB	1D	.	1d	1b
.	.	2G	.	.
=120	=120	=120	=120	=120
2AA	2.E	1A	2.c	1cc
2AA	.	.	.	.
.	4F#	.	4d	.
2E	2G#	2B	[1e	2b
2AA	2A	2c	.	2a
=121	=121	=121	=121	=121
0E	2B	2B	0e]	2g#
.	2c	2A	.	1a
.	2B	1B	.	.
.	2e	.	.	2g#
=122	=122	=122	=122	=122
[0AA	[0c#	[0A	[0e	[0a
=123	=123	=123	=123	=123
0AA]	0c#]	0A]	0e]	0a]
*-	*-	*-	*-	*-
!!!CDT: 1525/^1526/-1594/2/2
!!!OCY: Italia
!!!AGN: Mass (Paraphrase)
!!!AST: renaissance, vocal
!!!ASW: Gregorian Mass
!!!PWK: Masses, Book Mantuan II
!!!RNB: Cadence finals: A,E
!!!YOR: Le Opere Complete, v. 19, p. 43
!!!YOO: Rome, Italy: Fratelli Scalera
!!!END: 1992//
!!!EED: John Miller
!!!YEC: Copyright 2000, John Miller
!!!YEN: United States of America
!!!YEM: Rights to all derivative electronic formats reserved.
!!!YEM: Refer to licensing agreement for further details.
!!!YEM: This file must be accompanied by the licensing agreement.
!!!YEM: A copy of the licensing agreement may be found at http://www.music-cog.ohio-state.edu/HumdrumDatabases/Palestrina/license.txt
!!!EMD: converted to Humdrum by Bret Aarden
